X:027 
T:Brown's Hornpipe* 
C:source: Grier MS
F:file ID: cre.4/027brown_H
S:Grier MS
B:CRE4.224: gan ainm
L:1/8
Q:150
M:4/4
R:hornpipe
K:D
AF|GFED FAAF|GFGA BABc|dcBA BAGF|B2E2 E2AF|
GFED FAAF|GFGA Bdef|gfed cdeg|f2 d2 d2:|
(3ABc|dfdB cecA|Bcdc BAGF|GABc dcBA|B2 E2 E2|
[1 (3ABc|dfdB cecA|BcdB A2 f2|gfed cdeg|f2 d2 d2 :|
[2 (3cde|f2 fd e2 ec|dcdB A2 f2|gfed cdeg|f2 d2 d4 |]

%%%

